X:1
T:Title
%%score ( 1 2 ) { 3 | 4 }
L:1/8
Q:1/4=83
M:6/8
K:Ab
V:1 treble nm="Grand Piano, Soprano"
V:2 treble 
V:3 bass nm="Choir Pad, Kawasaki, Ira D. Sankey"
V:4 bass 
V:1
 [CE][Ec]>[EB] [EA][FB][FA] | [DF][CE][A,C] [DF] [CE]2 | E[DF]>[EG] [FA][EA][EG] | %3
w: By~Ira~David~Sankey,~1887 * * * * *|||
 [EA] [GB]2- [GB]2- [GB]/ z/ | [Bd][Ac]>[EB] [EA][FB][FA] | [DF][CE][A,C] [DF] [CE]2 | %6
w: |||
 E[CA]<[CA] [CA][Ec]>[EA] | [DB] [CA]2- [CA]2- [CA]/ z/ | [Ae][Ge]>[GB] [GB][GB][Ac] | %9
w: |||
 [Bd][Bd]<[Ac] [Ac] [Ac]2 | [Bc][Ac]>[Ac] [Ac][A=d][Ac] | z [Ge]2- [Ge]2- [Ge]/ z/ | %12
w: |||
 [Bd][Ac]>[EB] [EA][FB][FA] | [DF][CE][A,C] [DF] [CE]2 | E[CA]<[CA] [CA][Ec]>[EA] | %15
w: |||
 [DB] [CA]2- [CA]3- | [CA]3 z3 |] %17
w: ||
V:2
 x6 | x6 | x6 | x6 | x6 | x6 | x6 | x6 | x6 | x6 | x6 | .[AB]3 .A3 | x6 | x6 | x6 | x6 | x6 |] %17
V:3
 A,A,>G, A,A,A, | A,A,E, A, A,2 | A,A,>A, A,A,[K:treble]D | C E2- E2- E/ z/ | EE>D CDD | %5
 A,A,E, A, A,2 | A,A,<A, A,A,>F, | G, A,2- A,2- A,/ z/ | CB,>E EEE | EE<E E E2 | =EF>F FF_E | %11
 =DE_D C B,2 | EE>D CDD | A,A,E, A, A,2 | A,A,<A, A,A,>F, | G, A,2- A,3- | A,3 z3 |] %17
V:4
 A,,A,,>B,, C,D,D, | D,A,,A,, A,, A,,2 | C,D,>D, D,C,C, | C, E,2- E,2- E,/ z/ | G,A,>A, A,D,D, | %5
 D,A,,A,, A,, A,,2 | C,F,<F, F,E,>E, | E, A,,2- A,,2- A,,/ z/ | A,E,>E, E,E,E, | E,A,<A, A, A,2 | %10
 G,F,>F, F,B,B, | B, E,2- E,2- E,/ z/ | G,A,>A, A,D,D, | D,A,,A,, A,, A,,2 | C,F,<F, F,E,>E, | %15
 E, A,,2- A,,3- | A,,3 z3 |] %17

